X:1
T:Will the Angels Come?
T:William Howard Doane
T:Will the Angels Come?
T:Public Domain
T:Public Domain
C:William Howard Doane
Z:Public Domain
%%score ( 1 2 ) ( 3 4 )
L:1/8
M:6/8
K:D
V:1 treble 
V:2 treble 
V:3 bass 
V:4 bass 
V:1
 [FA]2 [DF]/[EG]/ [FA][GB][Ec] | [Fd][FA][DF] [FA]3 | [GB]>G[GB] [Bd][Ac][GB] | [FA]3- [FA]2 z | %4
w: 1.~When I have fin- ished my|jour- ney on earth,|End- ed my la- bor of|love, *|
w: 2.~When I am breath- ing my|lat- est fare- well,|Part- ing from all that is|dear, *|
w: 3.~When, as I gaze from the|thresh- old of time,|Faint- er and faint- er the|light, *|
w: 4.~Yes; they will come from the|bright, sun- ny land,|Come on their pin- ions so|fair; *|
 [EA]2 [CE]/[DF]/ | [EG][FA][GB] | [GB][FA][DF] [DA]3 | [Dd]>[GB]G [GB][FA][DF] | [CE]3- [CE]2 z || %9
w: When I am|wait- ing for|Je- sus to say,|“Haste to thy man- sion a-|bove.” *|
w: When on my|pil- low I|wear- i- ly turn,|Say, will the an- gels be|near? *|
w: Soft- er and|soft- er the|voic- es I hear,|Bid- ding my spir- it good|night. *|
w: Je- sus will|send them its|glor- y to tell,|An- gels will car- ry me|there. *|
"^Refrain" [FA]3- [FA]2 [EG] | [DF]3- [DF]2 z | [Gd]3- [Gd]2 [Gc] | [GB]3- [GB]2 z | %13
w: ||||
w: Will * they|come? *|Will * they|come? *|
w: ||||
w: ||||
 [FA][FA][FA] [DF]2 [GB] | [FA]3- [FA]2 [DF]/[EG]/ | [FA]2 [FA] [FA][EG][DF] | [CE]3- [CE]3 | %17
w: ||||
w: Say, will the an- gels|come, * And to|Je- sus car- ry me|home? *|
w: ||||
w: ||||
 [FA]3- [FA]2 [EG] | [DF]3- [DF]2 z | [Gd]3- [Gd]2 [Gc] | [GB]3- [GB]2 z | %21
w: ||||
w: Will * they|come? *|Will * they|come? *|
w: ||||
w: ||||
 [FA][FA][FA] [DF]2 [GB] | [FA]3- [FA]2 [DF]/D/ | [DF]2 [DF] [CE][DF][CE] | D6 |] %25
w: ||||
w: Say, will the an- gels|come, * And to|sus car- ry me home?||
w: ||||
w: ||||
V:2
 x6 | x6 | x6 | x6 | x3 | x3 | x6 | x6 | x6 || x6 | x6 | x6 | x6 | x6 | x6 | x6 | x6 | x6 | x6 | %19
w: |||||||||||||||||||
w: |||||||||||||||||||
 x6 | x6 | x6 | x11/2 D/ | x6 | D6 |] %25
w: ||||||
w: |||Je-|||
V:3
 [D,A,]2 [D,A,]/[D,A,]/ [D,A,][D,A,][D,A,] | [D,A,][D,D][D,A,] [D,D]3 | %2
 [G,,D]>[G,,D][G,,D] [G,,D][G,,D][G,,D] | [D,D]3- [D,D]2 z | [A,,C]2 [A,,A,]/[A,,A,]/ | %5
 [A,,A,][A,,A,][C,A,] | [D,D][D,D][D,A,] [D,F,]3 | [G,,B,]>[G,,D][B,,D] [D,D][D,D][D,A,] | %8
 [A,,A,]3- [A,,A,]2 z || ([D,D]2 [D,D] [D,D]2) [D,A,] | ([D,A,][D,A,][D,A,] [D,A,]2) z | %11
 ([G,B,]2 [G,B,] [G,B,]2) [G,D] | ([G,D][G,D][G,D] [G,D]2) z | [D,D][D,D][D,D] [D,A,]2 [D,D] | %14
 [D,D]3- [D,D]2 [D,A,]/[D,A,]/ | [D,D]2 [D,D] [D,D][D,A,][D,A,] | [A,,A,]3- [A,,A,]3 | %17
 ([D,D]2 [D,D] [D,D]2) [D,A,] | ([D,A,][D,A,][D,A,] [D,A,]2) z | ([G,B,]2 [G,B,] [G,B,]2) [G,D] | %20
 ([G,D][G,D][G,D] [G,D]2) z | [D,D][D,D][D,D] [D,A,]2 [D,D] | [D,D]3- [D,D]2 [D,A,]/[F,A,]/ | %23
 A,2 A, [A,,A,][A,,A,][A,,G,] | [D,F,]6 |] %25
V:4
 x6 | x6 | x6 | x6 | x3 | x3 | x6 | x6 | x6 || x6 | x6 | x6 | x6 | x6 | x6 | x6 | x6 | x6 | x6 | %19
 x6 | x6 | x6 | x6 | A,2 A, x3 | x6 |] %25

